icons/creative-commons-sa-line.svg

<svg width="24" height="24" fill="none" xmlns="http://www.w3.org/2000/svg"><g clip-path="url(#a)"><path d="M12 2c5.52 0 10 4.48 10 10s-4.48 10-10 10S2 17.52 2 12 6.48 2 12 2Zm0 2c-4.415 0-8 3.585-8 8s3.585 8 8 8 8-3.585 8-8-3.585-8-8-8Zm0 2c2.761 0 5 2.686 5 6s-2.239 6-5 6c-2.177 0-4.029-1.67-4.715-4l2.117.001C9.92 15.196 10.89 16 12 16c1.657 0 3-1.79 3-4s-1.343-4-3-4c-1.11 0-2.08.805-2.599 2H11l-2.5 3L6 10h1.284C7.971 7.67 9.823 6 12 6Z" /></g><defs><clipPath id="a"><path fill="#fff" d="M0 0h24v24H0z"/></clipPath></defs></svg>

<svg xmlns="http://www.w3.org/2000/svg" width="24" height="24" fill="none"><g clip-path="url(#a)"><g><path fill="#121212" d="M12 2C17.52 2 22 6.48 22 12C22 17.52 17.52 22 12 22C6.48 22 2 17.52 2 12C2 6.48 6.48 2 12 2ZM12 4C7.585 4 4 7.585 4 12C4 16.415 7.585 20 12 20C16.415 20 20 16.415 20 12C20 7.585 16.415 4 12 4ZM12 6C14.761 6 17 8.686 17 12C17 15.314 14.761 18 12 18C9.823 18 7.971 16.33 7.285 14L9.402 14.001C9.92 15.196 10.89 16 12 16C13.657 16 15 14.21 15 12C15 9.79 13.657 8 12 8C10.89 8 9.92 8.805 9.401 10H11L8.5 13L6 10H7.284C7.971 7.67 9.823 6 12 6Z"/></g></g><defs><clipPath id="a"><rect width="24" height="24" fill="white"/></clipPath></defs></svg>
